Hatter-kde/actions/32/gnumeric-format-valign-top.svg

<?xml version="1.0" encoding="UTF-8"?>
<svg viewBox="0 0 32 32" xmlns="http://www.w3.org/2000/svg">
 <defs id="defs3051">
  <style id="current-color-scheme" type="text/css">.ColorScheme-Text {
        color:#363636;
      }</style>
 </defs>
 <path class="ColorScheme-Text" d="m4 4v1h24v-1h-24zm12 3-5 6h4v15h2v-15h4l-5-6z" fill="currentColor"/>
</svg>

<svg xmlns="http://www.w3.org/2000/svg" viewBox="0 0 32 32">
  <defs
     id="defs3051">
    <style
       type="text/css"
       id="current-color-scheme">
      .ColorScheme-Text {
        color:#363636;
      }
      </style>
  </defs>
  <path
     style="fill:currentColor;fill-opacity:1;stroke:none" 
     d="M 4 4 L 4 5 L 28 5 L 28 4 L 4 4 z M 16 7 L 11 13 L 15 13 L 15 28 L 17 28 L 17 13 L 21 13 L 16 7 z "
     class="ColorScheme-Text"
     />
</svg>
